img/racket.svg

<svg fill="none" height="16" viewBox="0 0 16 16" width="16" xmlns="http://www.w3.org/2000/svg"><path clip-rule="evenodd" d="m10.621 9.76578c-.1454.23892-.3194.45482-.5196.64162-.17973.1677-.38133.3128-.60039.4338l-1.47056-1.57891 1.13344-1.05783zm-3.61288-1.60115 1.13232-1.05677-1.50809-1.61589-1.13067 1.05524zm-2.60304-.59397-1.1168 1.0423c.19645.31458.43168.62267.70792.91865.25135.26931.51503.50549.78672.70979l1.12859-1.05331zm.07427-2.1211 1.12955-1.05419-1.38966-1.48899c-.24838.12864-.47571.28735-.67591.47419-.17735.16552-.33414.35381-.46874.56073zm-1.95538.10141.85877.92204-.72909.68046c-.14303-.54938-.18257-1.09288-.12968-1.6025zm5.33133 5.72413-.92146-.9894-.7633.7124c.56941.2055 1.14233.2943 1.68476.277zm3.2763-3.16067-.8711-.93342.7012-.6544c.1543.54215.2075 1.08035.1699 1.58782zm-1.89456-2.03003 1.06536-.99427c-.1851-.28513-.40253-.56446-.65387-.83377-.27624-.29599-.56738-.5519-.86767-.76956l-1.0519.98172zm-2.53153-2.71249.66307-.61884c-.49529-.16616-.99164-.24454-1.46672-.24225zm4.87339 7.64249c1.6738-2.08926 1.3616-5.4292-.8338-7.7815-2.37616-2.54604-6.05873-2.970895-8.22522-.94894-2.166484 2.02196-1.996481 5.72506.37971 8.27114 2.14821 2.3017 5.36414 2.8698 7.56231 1.4636l3.1524 3.1525c.2929.2929.7678.2929 1.0607 0s.2929-.7678 0-1.0607z" fill="#1c8aa9" fill-rule="evenodd"/></svg>

<svg width="16" height="16" viewBox="0 0 16 16" fill="none" xmlns="http://www.w3.org/2000/svg">
<path fill-rule="evenodd" clip-rule="evenodd" d="M10.621 9.76578C10.4756 10.0047 10.3016 10.2206 10.1014 10.4074C9.92167 10.5751 9.72007 10.7202 9.50101 10.8412L8.03045 9.26229L9.16389 8.20446L10.621 9.76578ZM7.00812 8.16463L8.14044 7.10786L6.63235 5.49197L5.50168 6.54721L7.00812 8.16463ZM4.40508 7.57066L3.28828 8.61296C3.48473 8.92754 3.71996 9.23563 3.9962 9.53161C4.24755 9.80092 4.51123 10.0371 4.78292 10.2414L5.91151 9.18809L4.40508 7.57066ZM4.47935 5.44956L5.6089 4.39537L4.21924 2.90638C3.97086 3.03502 3.74353 3.19373 3.54333 3.38057C3.36598 3.54609 3.20919 3.73438 3.07459 3.9413L4.47935 5.44956ZM2.52397 5.55097L3.38274 6.47301L2.65365 7.15347C2.51062 6.60409 2.47108 6.06059 2.52397 5.55097ZM7.8553 11.2751L6.93384 10.2857L6.17054 10.9981C6.73995 11.2036 7.31287 11.2924 7.8553 11.2751ZM11.1316 8.11443L10.2605 7.18101L10.9617 6.52661C11.116 7.06876 11.1692 7.60696 11.1316 8.11443ZM9.23704 6.0844L10.3024 5.09013C10.1173 4.805 9.89987 4.52567 9.64853 4.25636C9.37229 3.96037 9.08115 3.70446 8.78086 3.4868L7.72896 4.46852L9.23704 6.0844ZM6.70551 3.37191L7.36858 2.75307C6.87329 2.58691 6.37694 2.50853 5.90186 2.51082L6.70551 3.37191ZM11.5789 11.0144C13.2527 8.92514 12.9405 5.5852 10.7451 3.2329C8.36894 0.68686 4.68637 0.262005 2.51988 2.28396C0.353396 4.30592 0.523399 8.00902 2.89959 10.5551C5.0478 12.8568 8.26373 13.4249 10.4619 12.0187L13.6143 15.1712C13.9072 15.4641 14.3821 15.4641 14.675 15.1712C14.9679 14.8783 14.9679 14.4034 14.675 14.1105L11.5789 11.0144Z" fill="#1C8AA9"/>
</svg>
